www/assets/icons/breakfast_dining.svg

<svg xmlns="http://www.w3.org/2000/svg" width="24" height="24" viewBox="0 0 24 24" fill='currentColor'><path fill-rule="evenodd" d="M18 3H6C3.79 3 2 4.79 2 7c0 1.48.81 2.75 2 3.45V19c0 1.1.9 2 2 2h12c1.1 0 2-.9 2-2v-8.55c1.19-.69 2-1.97 2-3.45 0-2.21-1.79-4-4-4m-4 12h-4v-4h4z" clip-rule="evenodd"/></svg>

<svg width="24" height="24" viewBox="0 0 24 24" xmlns="http://www.w3.org/2000/svg" fill='currentColor'><path fill-rule="evenodd" clip-rule="evenodd" d="M18 3H6C3.79 3 2 4.79 2 7C2 8.48 2.81 9.75 4 10.45V19C4 20.1 4.9 21 6 21H18C19.1 21 20 20.1 20 19V10.45C21.19 9.76 22 8.48 22 7C22 4.79 20.21 3 18 3ZM14 15H10V11H14V15Z"/></svg>
